X:75
T:Bytt Lasses Brudmarsch
S:Christina E
R:Wedding march
O:Sweden
M:4/4
A:H\"alsingland
K:ADor
AB|\
c3d c2BA|B6 Bd|cBA^G ABcd|e2f2 g2e2|\
c3d c2BA|B6 Bd|
cBA^G Ace2|1 E^GBG A2 :|2 E^GBG (A4|\
M:2/4
(A8)||\
M:4/4
|:A)B^cd e2ce|a6 ef|
g2f2 e2^c2|d4 a4|\
e3d cBcd|c4 e2e2|B6 Bd|cBA^G Ace2|B4 E^GBG\
|1 A8 :|2 A6||
